assets/img/steps/i-3.svg

<svg width="59" height="59" viewBox="0 0 59 59" fill="none" xmlns="http://www.w3.org/2000/svg">
<path d="M56.6363 0H2.28988C1.68276 0.000646556 1.1007 0.242109 0.671404 0.671404C0.242109 1.1007 0.000646556 1.68276 0 2.28988V43.8539C0.0007272 44.461 0.242215 45.043 0.671493 45.4723C1.10077 45.9016 1.68279 46.1431 2.28988 46.1438H23.2502C23.5326 47.216 23.5192 48.3447 23.2115 49.41C22.9038 50.4752 22.3132 51.4372 21.5026 52.1937L20.4605 53.1661H18.1664C17.4376 53.1661 16.7387 53.4556 16.2233 53.9709C15.708 54.4862 15.4185 55.1852 15.4185 55.9139C15.4185 56.6427 15.708 57.3416 16.2233 57.857C16.7387 58.3723 17.4376 58.6618 18.1664 58.6618H40.7598C41.4886 58.6618 42.1875 58.3723 42.7029 57.857C43.2182 57.3416 43.5077 56.6427 43.5077 55.9139C43.5077 55.1852 43.2182 54.4862 42.7029 53.9709C42.1875 53.4556 41.4886 53.1661 40.7598 53.1661H38.4654L37.4239 52.194C36.6131 51.4375 36.0224 50.4755 35.7146 49.4102C35.4067 48.3449 35.3933 47.2161 35.6757 46.1438H56.6363C57.2434 46.1431 57.8254 45.9016 58.2547 45.4723C58.684 45.043 58.9255 44.461 58.9262 43.8539V2.28988C58.9256 1.68276 58.6841 1.1007 58.2548 0.671404C57.8255 0.242109 57.2434 0.000646556 56.6363 0ZM2.28988 1.52659H56.6363C56.8388 1.52659 57.0329 1.607 57.1761 1.75015C57.3192 1.89329 57.3996 2.08744 57.3996 2.28988V8.4066H1.52659V2.28988C1.52659 2.08744 1.607 1.89329 1.75015 1.75015C1.89329 1.607 2.08744 1.52659 2.28988 1.52659ZM41.9811 55.9139C41.9811 56.2379 41.8524 56.5485 41.6234 56.7775C41.3944 57.0065 41.0837 57.1352 40.7598 57.1352H18.1664C17.8425 57.1352 17.5318 57.0065 17.3028 56.7775C17.0738 56.5485 16.9451 56.2379 16.9451 55.9139C16.9451 55.59 17.0738 55.2794 17.3028 55.0504C17.5318 54.8214 17.8425 54.6927 18.1664 54.6927H40.7598C41.0837 54.6927 41.3944 54.8214 41.6234 55.0504C41.8524 55.2794 41.9811 55.59 41.9811 55.9139ZM36.2323 53.1661H22.6942C23.6076 52.2668 24.2809 51.1528 24.6524 49.9259C25.0238 48.6991 25.0816 47.3987 24.8204 46.1438H34.1058C33.8446 47.3988 33.9025 48.6992 34.274 49.926C34.6455 51.1528 35.3188 52.2668 36.2323 53.1661ZM56.6363 44.6172H2.28988C2.08744 44.6172 1.89329 44.5368 1.75015 44.3937C1.607 44.2505 1.52659 44.0564 1.52659 43.8539V9.93319H57.3996V43.8539C57.3996 44.0564 57.3192 44.2505 57.1761 44.3937C57.0329 44.5368 56.8388 44.6172 56.6363 44.6172Z" fill="#354BAC"/>
<path d="M6.29558 7.36509C6.73338 7.36509 7.16135 7.23527 7.52536 6.99204C7.88938 6.74881 8.1731 6.4031 8.34063 5.99863C8.50817 5.59415 8.55201 5.14908 8.4666 4.7197C8.38119 4.29031 8.17037 3.89589 7.8608 3.58632C7.55123 3.27675 7.15681 3.06593 6.72742 2.98052C6.29804 2.89511 5.85297 2.93895 5.44849 3.10649C5.04402 3.27402 4.69831 3.55774 4.45508 3.92176C4.21185 4.28577 4.08203 4.71374 4.08203 5.15154C4.08268 5.73841 4.3161 6.30106 4.73108 6.71604C5.14606 7.13102 5.70871 7.36444 6.29558 7.36509ZM6.29558 4.46458C6.43145 4.46458 6.56427 4.50486 6.67724 4.58035C6.79021 4.65583 6.87826 4.76312 6.93025 4.88865C6.98225 5.01418 6.99585 5.1523 6.96934 5.28556C6.94284 5.41882 6.87741 5.54122 6.78134 5.6373C6.68526 5.73337 6.56286 5.7988 6.4296 5.8253C6.29634 5.85181 6.15822 5.83821 6.03269 5.78621C5.90717 5.73422 5.79988 5.64617 5.72439 5.5332C5.64891 5.42022 5.60862 5.28741 5.60862 5.15154C5.60886 4.96942 5.68131 4.79483 5.81009 4.66605C5.93887 4.53727 6.11346 4.46482 6.29558 4.46458Z" fill="#354BAC"/>
<path d="M11.946 7.36509C12.3838 7.36509 12.8117 7.23527 13.1758 6.99204C13.5398 6.74881 13.8235 6.4031 13.991 5.99863C14.1586 5.59415 14.2024 5.14908 14.117 4.7197C14.0316 4.29031 13.8208 3.89589 13.5112 3.58632C13.2016 3.27675 12.8072 3.06593 12.3778 2.98052C11.9484 2.89511 11.5034 2.93895 11.0989 3.10649C10.6944 3.27402 10.3487 3.55774 10.1055 3.92176C9.86224 4.28577 9.73242 4.71374 9.73242 5.15154C9.73307 5.73841 9.96649 6.30106 10.3815 6.71604C10.7965 7.13102 11.3591 7.36444 11.946 7.36509ZM11.946 4.46458C12.0818 4.46458 12.2147 4.50486 12.3276 4.58035C12.4406 4.65583 12.5286 4.76312 12.5806 4.88865C12.6326 5.01418 12.6462 5.1523 12.6197 5.28556C12.5932 5.41882 12.5278 5.54122 12.4317 5.6373C12.3357 5.73337 12.2133 5.7988 12.08 5.8253C11.9467 5.85181 11.8086 5.83821 11.6831 5.78621C11.5576 5.73422 11.4503 5.64617 11.3748 5.5332C11.2993 5.42022 11.259 5.28741 11.259 5.15154C11.2593 4.96942 11.3317 4.79483 11.4605 4.66605C11.5893 4.53727 11.7639 4.46482 11.946 4.46458Z" fill="#354BAC"/>
<path d="M17.5944 7.36509C18.0322 7.36509 18.4602 7.23527 18.8242 6.99204C19.1882 6.74881 19.4719 6.4031 19.6395 5.99863C19.807 5.59415 19.8508 5.14908 19.7654 4.7197C19.68 4.29031 19.4692 3.89589 19.1596 3.58632C18.8501 3.27675 18.4556 3.06593 18.0263 2.98052C17.5969 2.89511 17.1518 2.93895 16.7473 3.10649C16.3428 3.27402 15.9971 3.55774 15.7539 3.92176C15.5107 4.28577 15.3809 4.71374 15.3809 5.15154C15.3815 5.73841 15.6149 6.30106 16.0299 6.71604C16.4449 7.13102 17.0075 7.36444 17.5944 7.36509ZM17.5944 4.46458C17.7303 4.46458 17.8631 4.50486 17.9761 4.58035C18.089 4.65583 18.1771 4.76312 18.2291 4.88865C18.2811 5.01418 18.2947 5.1523 18.2682 5.28556C18.2417 5.41882 18.1762 5.54122 18.0802 5.6373C17.9841 5.73337 17.8617 5.7988 17.7284 5.8253C17.5952 5.85181 17.457 5.83821 17.3315 5.78621C17.206 5.73422 17.0987 5.64617 17.0232 5.5332C16.9477 5.42022 16.9074 5.28741 16.9074 5.15154C16.9077 4.96942 16.9801 4.79483 17.1089 4.66605C17.2377 4.53727 17.4123 4.46482 17.5944 4.46458Z" fill="#354BAC"/>
<path d="M44.2184 5.91477H53.0726C53.275 5.91477 53.4692 5.83435 53.6123 5.69121C53.7554 5.54806 53.8359 5.35391 53.8359 5.15148C53.8359 4.94904 53.7554 4.75489 53.6123 4.61175C53.4692 4.4686 53.275 4.38818 53.0726 4.38818H44.2184C44.0159 4.38818 43.8218 4.4686 43.6786 4.61175C43.5355 4.75489 43.4551 4.94904 43.4551 5.15148C43.4551 5.35391 43.5355 5.54806 43.6786 5.69121C43.8218 5.83435 44.0159 5.91477 44.2184 5.91477Z" fill="#354BAC"/>
<path d="M46.6617 17.9478H12.5172C12.3148 17.9478 12.1206 17.8673 11.9775 17.7242C11.8343 17.581 11.7539 17.3869 11.7539 17.1845V12.91C11.7539 12.7076 11.8343 12.5134 11.9775 12.3703C12.1206 12.2271 12.3148 12.1467 12.5172 12.1467H46.6617C46.8642 12.1467 47.0583 12.2271 47.2015 12.3703C47.3446 12.5134 47.425 12.7076 47.425 12.91V17.1845C47.425 17.3869 47.3446 17.581 47.2015 17.7242C47.0583 17.8673 46.8642 17.9478 46.6617 17.9478ZM13.2805 16.4212H45.8984V13.6733H13.2805V16.4212Z" fill="#EE794F"/>
<path d="M53.7854 14.3603H49.7652C49.5628 14.3603 49.3687 14.2798 49.2255 14.1367C49.0824 13.9936 49.002 13.7994 49.002 13.597C49.002 13.3945 49.0824 13.2004 49.2255 13.0572C49.3687 12.9141 49.5628 12.8337 49.7652 12.8337H53.7854C53.9878 12.8337 54.1819 12.9141 54.3251 13.0572C54.4682 13.2004 54.5487 13.3945 54.5487 13.597C54.5487 13.7994 54.4682 13.9936 54.3251 14.1367C54.1819 14.2798 53.9878 14.3603 53.7854 14.3603Z" fill="#EE794F"/>
<path d="M53.7854 17.2608H49.7652C49.5628 17.2608 49.3687 17.1804 49.2255 17.0372C49.0824 16.8941 49.002 16.6999 49.002 16.4975C49.002 16.295 49.0824 16.1009 49.2255 15.9578C49.3687 15.8146 49.5628 15.7342 49.7652 15.7342H53.7854C53.9878 15.7342 54.1819 15.8146 54.3251 15.9578C54.4682 16.1009 54.5487 16.295 54.5487 16.4975C54.5487 16.6999 54.4682 16.8941 54.3251 17.0372C54.1819 17.1804 53.9878 17.2608 53.7854 17.2608Z" fill="#EE794F"/>
<path d="M53.7857 31.2037H5.13829C4.93585 31.2037 4.74171 31.1233 4.59856 30.9801C4.45542 30.837 4.375 30.6428 4.375 30.4404V20.4666C4.375 20.2642 4.45542 20.07 4.59856 19.9269C4.74171 19.7837 4.93585 19.7033 5.13829 19.7033H53.7857C53.9881 19.7033 54.1823 19.7837 54.3254 19.9269C54.4686 20.07 54.549 20.2642 54.549 20.4666V30.4404C54.549 30.6428 54.4686 30.837 54.3254 30.9801C54.1823 31.1233 53.9881 31.2037 53.7857 31.2037ZM5.90159 29.6771H53.0224V21.2299H5.90159V29.6771Z" fill="#EBE7F2"/>
<path d="M19.0375 41.7222H5.13829C4.93585 41.7222 4.74171 41.6417 4.59856 41.4986C4.45542 41.3555 4.375 41.1613 4.375 40.9589V33.7989C4.375 33.5964 4.45542 33.4023 4.59856 33.2591C4.74171 33.116 4.93585 33.0356 5.13829 33.0356H19.0375C19.24 33.0356 19.4341 33.116 19.5773 33.2591C19.7204 33.4023 19.8008 33.5964 19.8008 33.7989V40.9589C19.8008 41.1613 19.7204 41.3555 19.5773 41.4986C19.4341 41.6417 19.24 41.7222 19.0375 41.7222ZM5.90159 40.1956H18.2743V34.5622H5.90159V40.1956Z" fill="#EE794F"/>
<path d="M36.4125 41.7222H22.5133C22.3109 41.7222 22.1167 41.6417 21.9736 41.4986C21.8304 41.3555 21.75 41.1613 21.75 40.9589V33.7989C21.75 33.5964 21.8304 33.4023 21.9736 33.2591C22.1167 33.116 22.3109 33.0356 22.5133 33.0356H36.4125C36.615 33.0356 36.8091 33.116 36.9523 33.2591C37.0954 33.4023 37.1758 33.5964 37.1758 33.7989V40.9589C37.1758 41.1613 37.0954 41.3555 36.9523 41.4986C36.8091 41.6417 36.615 41.7222 36.4125 41.7222ZM23.2766 40.1956H35.6493V34.5622H23.2766V40.1956Z" fill="#EE794F"/>
<path d="M53.7856 41.7222H39.8863C39.6839 41.7222 39.4898 41.6417 39.3466 41.4986C39.2035 41.3555 39.123 41.1613 39.123 40.9589V33.7989C39.123 33.5964 39.2035 33.4023 39.3466 33.2591C39.4898 33.116 39.6839 33.0356 39.8863 33.0356H53.7856C53.988 33.0356 54.1822 33.116 54.3253 33.2591C54.4685 33.4023 54.5489 33.5964 54.5489 33.7989V40.9589C54.5489 41.1613 54.4685 41.3555 54.3253 41.4986C54.1822 41.6417 53.988 41.7222 53.7856 41.7222ZM40.6496 40.1956H53.0223V34.5622H40.6496V40.1956Z" fill="#EE794F"/>
<path d="M7.27551 17.9478C6.70185 17.9478 6.14106 17.7776 5.66408 17.4589C5.18709 17.1402 4.81532 16.6872 4.59579 16.1572C4.37626 15.6272 4.31882 15.044 4.43073 14.4814C4.54265 13.9187 4.8189 13.4019 5.22454 12.9963C5.63019 12.5906 6.14701 12.3144 6.70965 12.2025C7.2723 12.0905 7.85549 12.148 8.38549 12.3675C8.91549 12.5871 9.36849 12.9588 9.6872 13.4358C10.0059 13.9128 10.176 14.4736 10.176 15.0472C10.1751 15.8162 9.86926 16.5535 9.3255 17.0972C8.78174 17.641 8.0445 17.9469 7.27551 17.9478ZM7.27551 13.6733C7.00378 13.6733 6.73814 13.7539 6.5122 13.9049C6.28626 14.0558 6.11016 14.2704 6.00617 14.5215C5.90218 14.7725 5.87497 15.0488 5.92799 15.3153C5.981 15.5818 6.11185 15.8266 6.304 16.0188C6.49615 16.2109 6.74096 16.3418 7.00747 16.3948C7.27399 16.4478 7.55024 16.4206 7.80129 16.3166C8.05235 16.2126 8.26692 16.0365 8.41789 15.8106C8.56886 15.5846 8.64944 15.319 8.64944 15.0472C8.64904 14.683 8.50415 14.3337 8.24658 14.0762C7.98901 13.8186 7.63978 13.6737 7.27551 13.6733Z" fill="#EE794F"/>
</svg>

<svg width="59" height="59" fill="none" xmlns="http://www.w3.org/2000/svg"><path d="M56.636 0H2.29A2.292 2.292 0 000 2.29v41.564a2.293 2.293 0 002.29 2.29h20.96a6.137 6.137 0 01-1.747 6.05l-1.043.972h-2.294a2.748 2.748 0 000 5.496H40.76a2.748 2.748 0 000-5.496h-2.295l-1.041-.972a6.137 6.137 0 01-1.748-6.05h20.96a2.292 2.292 0 002.29-2.29V2.29A2.292 2.292 0 0056.636 0zM2.29 1.527h54.346a.763.763 0 01.764.763v6.117H1.527V2.29a.763.763 0 01.763-.763zM41.98 55.914a1.221 1.221 0 01-1.221 1.221H18.166a1.221 1.221 0 010-2.442H40.76a1.221 1.221 0 011.221 1.22zm-5.749-2.748H22.694a7.664 7.664 0 002.126-7.022h9.286a7.663 7.663 0 002.126 7.022zm20.404-8.549H2.29a.763.763 0 01-.763-.763V9.934H57.4v33.92a.764.764 0 01-.764.763z" fill="#354BAC"/><path d="M6.296 7.365a2.214 2.214 0 100-4.427 2.214 2.214 0 000 4.427zm0-2.9a.687.687 0 110 1.373.687.687 0 010-1.373zM11.946 7.365a2.214 2.214 0 100-4.427 2.214 2.214 0 000 4.427zm0-2.9a.687.687 0 110 1.373.687.687 0 010-1.373zM17.594 7.365a2.214 2.214 0 100-4.427 2.214 2.214 0 000 4.427zm0-2.9a.687.687 0 110 1.374.687.687 0 010-1.374zM44.218 5.915h8.855a.763.763 0 000-1.527h-8.855a.763.763 0 100 1.527z" fill="#354BAC"/><path d="M46.662 17.948H12.517a.763.763 0 01-.763-.764V12.91a.763.763 0 01.763-.763h34.145a.763.763 0 01.763.763v4.274a.764.764 0 01-.763.764zM13.28 16.42h32.618v-2.748H13.28v2.748zM53.785 14.36h-4.02a.764.764 0 010-1.526h4.02a.764.764 0 010 1.526zM53.785 17.26h-4.02a.763.763 0 010-1.526h4.02a.763.763 0 010 1.527z" fill="#EE794F"/><path d="M53.786 31.204H5.138a.763.763 0 01-.763-.764v-9.973a.763.763 0 01.763-.764h48.648a.763.763 0 01.763.764v9.973a.763.763 0 01-.763.764zM5.902 29.677h47.12V21.23H5.902v8.447z" fill="#EBE7F2"/><path d="M19.038 41.722h-13.9a.764.764 0 01-.763-.763v-7.16a.763.763 0 01.763-.763h13.9a.764.764 0 01.763.763v7.16a.763.763 0 01-.763.763zM5.902 40.196h12.372v-5.634H5.902v5.634zM36.413 41.722h-13.9a.763.763 0 01-.763-.763v-7.16a.763.763 0 01.763-.763h13.9a.764.764 0 01.763.763v7.16a.763.763 0 01-.764.763zm-13.136-1.526h12.372v-5.634H23.277v5.634zM53.786 41.722h-13.9a.764.764 0 01-.763-.763v-7.16a.764.764 0 01.763-.763h13.9a.763.763 0 01.763.763v7.16a.763.763 0 01-.763.763zM40.65 40.196h12.372v-5.634H40.65v5.634zM7.276 17.948a2.9 2.9 0 110-5.802 2.9 2.9 0 010 5.802zm0-4.275a1.374 1.374 0 100 2.748 1.374 1.374 0 000-2.748z" fill="#EE794F"/></svg>
